X: 31
T: REELS: Maids of Mount Kisco Set
T: Maud Millar
C: C: Trad. / Paddy Killoran (?) / Trad.; S: Various
C: Set Leaders: Mars, Anton
Z: [Unedited]; slainte / Torc / leprecawn at The Session
N: https://thesession.org/members/26966/sets/94255
R: Reel
M: 4/4
L: 1/8
Q: 1/2=100
K: Gmaj
gf|edBA GEDE|G2BG dGBd|e2dB A2GA|Beed efgf|
edBA GEDE|G2BG dGBd|e2dB A2GA|Beed e2ge||
dega bgg2|agef g3e|dega bgg2|aged eage|
dega bgg2|agef g3a|bgaf gfed|Beed e4||
T: Maids of Mount Kisco
K: Ador
|:EA~A2 BGAG|EA~A2 BGAG|EG~G2 AG~G2|EG~G2 EGDG|
EA~A2 BGAG|EA~A2 BABd|e~g3 afge|1 dBGB ~A3G:|2 dBGB A2dB||
|:~A3B dBAB|G2BG DGBG|~A3B dGBd|1 efge dBGB:|2 efge d2 Bd||
|:ea~a2 bgaf|gedB GABd|ea~a2 bgaf|gede g2eg|
~a3f ~g3e|dedB GABd|eA~A2 efge|1 dBGB A2 Bd:|2 dBGB ~A3G||
T: Red-Haired Lass
K: Gmaj
DGGF G2 BG|G2 BG AGEG|DGGF GABd|egdB c2 BA|
DGGF G2 BG|G2 BG AGEG|DGGF GABd|gedB c2 Bc||
d2 gd edgd|d2 gd BABc|d2 gd edef|gedB c2 Bc|
d2 gd edgd|d2 gd BABd|c3A B3A|GABd egdB||

